X:1
T:Maria dolce
T:Maria dolce
T:Francesca Caccini
T:(Madrigale spirituale)
T:Source : Primo libro delle Musische a 1 e 2 voci---Firenze---Z.Pignoni---1618. Editor : André Vierendeels (08/06/15).
C:Francesca Caccini
%%score 1 2
L:1/8
Q:1/4=76
M:4/4
K:F
V:1 treble nm="Soprano" snm="S"
V:2 bass nm="BC" snm="BC"
V:1
 z4 z2 A2 | c4 c4 | c2 TB>A TA4 | G8 | B>c d2 B3 A | AB/ c2 G/ A2 A2 | z cBA AB c2 | %7
w: Ma-|ri- a|dol- ce Ma- ri-|a,|co- * * me so-|a- * * ve tan- to,|ch'e pro- nun- ciar t'in _|
 A>F FG G>A BG | G8 | F8 | z2 d4 Tc>B | TB2- B/A/G/F/ G/A/B/4c/4d/4e/4 f>B | c2 c3 cBA | %13
w: pa- * ra- * di- * si _|co-|re,|No- me sa-|cra _ _ _ _ _ _ _ _ _ _ to, e|San- to, ch'el cor m'in-|
 B>c d2 d2 Tc>B | B>c A>B c3 A | A8 | G8 | z2 B2 =B>c d2 | z2 d2 c2 G2 | %19
w: fiam- * * mi di ce-|le- * * * * ste'a-|mo-|re,|Ma- ri- * *|mai em- pr'io|
 A/B/c/B/ B/TB/A/G/ F/E/F/D/4E/4 F/G/A/G/ | A/E/F/G/ A/=B/c/A/ B/c/B/c/ d/G/A/B/ | %21
w: can- * * * * * * * * * * * * * * * *||
 c/T=B/B BA/.B/ c4 | z2 A2 B>c d2- | dB TA>G G4 | G2 BB c2 A>^F | TG>^F E>F G/A/B/A/ A>G | %26
w: * * * * * * to,|ne puo _ _|_ la lin- gua mi-|a piu fe- li- ce pa-|ro- * * * * * * * * la,|
 A4 z2 d2- | d2 B=B c3 G | A3 A c4 | z2 B2 B>c d2- | d2 z G G4 | F8 | z2 c4 A2 | F2 FG GA B2 | %34
w: _ Trar-|* mi dal sen gia|mai che dir,|che dir _ _|_ Ma- ri-|a,|no- me|ch'o- gni do- lor _ _|
 B2 TA>G G2 G2 | c2 BG A2 A2 | z2 Bc c>d _e2- | e2 c2 c4 | B4 z2 FF | A2 AB c4- | c2 G2 z2 GG | %41
w: tem- pra'e con- so- la,|vo- ce tran- quil- la|Co- gni'af- fa- * *|* no'ac- que-|ta, ch'o- gni|cor fa se- re-|* no, ch'o- gni|
 B2 Bc d4- | d2 A/G/A/B/ c3 B/A/ | TG3 G G4 | F4 z2 FF | A2 AB c4- | c2 G2 z2 GG | B2 Bc d4- | %48
w: cor fa- se- re-|* n'o'- * * * gn'al- * *|* ma lie-|ta, ch'o- gni|cor fa se- re-|* no, ch'o- gni|cor fa- se- re-|
 d2 A2 z2 G2 | A>B A>B c2 B>A | G/F/G/E/ F/D/E/4C/4D/4E/4 F/G/A/G/ A/B/A/4G/4A/4E/4 | %51
w: * non o-|gni'al- * * * * * *||
 F/D/E/F/ G/A/B/c/ d3 G | G8 |"^6" F8 |] %54
w: * * * * * * * * * ma|lie-|ta.|
V:2
 F,,8 |"^6" F,,4 A,,4 | E,,4 F,,4 | C,8 |"^-natural" G,,4 B,,2 D,2 | E,4 F,4 | F,4 C,4 | D,4 B,,4 | %8
 C,8 | F,,8 | B,,8 | B,,2 _E,4 D,2 | F,4 F,4 | B,,4 B,,4 |"^b" _E,4 C,4 | D,8 | G,,8 | %17
"^-natural" G,,4 G,,4 |"^-natural" G,4 E,4 | F,4 F,4 |"^6" F,2 E,2 G,4 | %21
"^10-natural""^14" G,,2 G,,2 C,4 | F,,4 B,,4 |"^6" D,4 _E,4 |"^b" _E,4 C,2 D,2 | G,,8 | D,4 D,4 | %27
 G,4 E,4 |"^6" F,4 A,,4 | B,,4 B,,4 | =B,,4 C,4 | F,,8 | E,4 F,4 | D,3 C, B,,4 | B,,4 C,4 | %35
"^6""^#" C,2 _E,2 D,4 | B,,4 _E,4 |"^11" _E,2 E,2 F,4 |"^10" B,,4 B,,4 |"^6" F,,2 G,,2 A,,2 B,,2 | %40
 C,4 C,4 | G,,2 A,,2 B,,2 C,2 |"^-natural""^6" D,4 A,,4 |"^6" B,,4 C,4 | F,,4 F,,4 | %45
"^6" F,,2 F,,G,, A,,3 B,, | C,4 C,4 | G,,2 A,,2 B,,2 C,2 |"^-natural""^6" D,4 E,4 | %49
 F,,2 G,,2 A,,2 B,,2 | C,4 D,4 |"^6" D,2 C,2 =B,,4 | C,8 | F,,8 |] %54

